X:491
M:C
L:1/8
K:G Minor
c>f cB/A/ B<GG:|
g/a/|b>gd>g G>dg>b|a>fc>f F>cf>a|b>gd>g f<d c>B|A>f d/c/B/A/ B<G Gg/a/|
b>gd>g G>dg>b|a>fc>f F>cf>a|b>ga>^f g>d=f>c|A>f d/c/B/A/ B<GG||

